X: 5
T: Missa Et ecce terre motus / Agnus Dei
N: Derived from Bru1008e-Missa_Et_ecce_terre_motus-Agnus.krn
C: Antoine Brumel
%%abc-version 2.0
%%abcx-abcm2ps-target-version 5.9.1 (29 Sep 2008)
%%abc-creator hum2abc beta
%%abcx-conversion-date 2019/02/16 20:23:56
%%abc-edited-by Jesse Rodin
%%abc-edited-by Legge/Rodin
%%abcx-initial-encoding-date 2014/08/07/
%%humdrum-veritas 1538599551
%%humdrum-veritas-data 3796338671
%%linebreak <none>
%%barnumbers 0
L: 1/4
M: 2/1
Q: 1/2=120
V: 1 clef=treble
V: 2 clef=treble
V: 3 clef=treble
V: 4 clef=treble-8
V: 5 clef=treble-8
V: 6 clef=treble-8
V: 7 clef=treble-8
V: 8 clef=treble-8
V: 9 clef=treble-8
V: 10 clef=bass
V: 11 clef=bass
V: 12 clef=bass
K: C
[V:1] G8 | 
[V:2] d4B2G2 | 
[V:3] z8 | 
[V:4] z8 | 
[V:5] z8 | 
[V:6] z8 | 
[V:7] d6B2- | 
[V:8] G8 | 
[V:9] z8 | 
[V:10] z4G,4- | 
[V:11] z8 | 
[V:12] z8 | 
[V:1] G4G4 | 
[V:2] G3AB2c2 | 
[V:3] z8 | 
[V:4] z8 | 
[V:5] z4g4- | 
[V:6] z8 | 
[V:7] B2G2G4 | 
[V:8] G8 | 
[V:9] g6e2- | 
[V:10] G,2E,4C,2 | 
[V:11] z8 | 
[V:12] z8 | 
[V:1] G8 | 
[V:2] G2c4BA | 
[V:3] z8 | 
[V:4] z8 | 
[V:5] g2e4c2 | 
[V:6] z8 | 
[V:7] c4g4- | 
[V:8] E8 | 
[V:9] e2c2c4 | 
[V:10] C,3B,,/A,,/C,3D, | 
[V:11] z8 | 
[V:12] z8 | 
[V:1] G6c2- | 
[V:2] G2c3de2 | 
[V:3] z8 | 
[V:4] g4e2c2 | 
[V:5] c4z4 | 
[V:6] c8 | 
[V:7] g2e4c2 | 
[V:8] G8- | 
[V:9] z4G4- | 
[V:10] E,3C,E,3F, | 
[V:11] G,6E,2- | 
[V:12] C,8 | 
[V:1] cde2c4- | 
[V:2] c3B/A/G2c2- | 
[V:3] z8 | 
[V:4] e3fg4 | 
[V:5] G6E2- | 
[V:6] c4c4 | 
[V:7] c4e3d | 
[V:8] G8 | 
[V:9] G2E4C2 | 
[V:10] G,4C,4 | 
[V:11] E,2C,2C,4- | 
[V:12] C,8 | 
[V:1] c2c2c4 | 
[V:2] c2A4GF | 
[V:3] z8 | 
[V:4] e4A3B | 
[V:5] E2C2C4 | 
[V:6] c8 | 
[V:7] cBc3Ac2- | 
[V:8] A8 | 
[V:9] C4z4 | 
[V:10] E,8 | 
[V:11] C,2B,,A,,C,3D, | 
[V:12] A,,8 | 
[V:1] G6E2- | 
[V:2] E4G4- | 
[V:3] C8 | 
[V:4] c6G2- | 
[V:5] z2c3Gc2- | 
[V:6] c6e2- | 
[V:7] c2BAG4 | 
[V:8] G8 | 
[V:9] z2E3FG2- | 
[V:10] z4z2C,2 | 
[V:11] E,2C,2E,3F, | 
[V:12] C,8- | 
[V:1] E2C2C2c2 | 
[V:2] G8 | 
[V:3] C8 | 
[V:4] G2c3de2 | 
[V:5] c2BAG4 | 
[V:6] efg4e2 | 
[V:7] C3DE4 | 
[V:8] G8 | 
[V:9] G2ABc4 | 
[V:10] E,3F,G,4- | 
[V:11] G,4C,4 | 
[V:12] C,8 | 
[V:1] z2A2d4 | 
[V:2] d3cA4 | 
[V:3] A,8 | 
[V:4] f8 | 
[V:5] z2d3cd2 | 
[V:6] a4d4 | 
[V:7] z8 | 
[V:8] z8 | 
[V:9] F3GA4 | 
[V:10] G,2F,E,F,4 | 
[V:11] z8 | 
[V:12] D,8 | 
[V:1] e6c2- | 
[V:2] z2c4BA | 
[V:3] C8- | 
[V:4] e4z2E2- | 
[V:5] G2c3de2 | 
[V:6] g6e2- | 
[V:7] C2E3FG2 | 
[V:8] z8 | 
[V:9] (3E2F2G2C2G2- | 
[V:10] G,4z2C,2 | 
[V:11] z2C,2E,3F, | 
[V:12] C,8 | 
[V:1] c2BAG2c2- | 
[V:2] G2c3de2- | 
[V:3] C8 | 
[V:4] EFG4G2- | 
[V:5] c2g4fe | 
[V:6] e2c2c4 | 
[V:7] C2E3FGA | 
[V:8] z8 | 
[V:9] G2E4C2 | 
[V:10] E,3F,G,4- | 
[V:11] G,4C,4 | 
[V:12] C,8 | 
[V:1] c2BAB4 | 
[V:2] e2dcd4 | 
[V:3] D8 | 
[V:4] GABcd4 | 
[V:5] d2G3AB2 | 
[V:6] z8 | 
[V:7] Bcd2G4 | 
[V:8] z8 | 
[V:9] G8 | 
[V:10] G,2F,E,D,4 | 
[V:11] G,,8 | 
[V:12] z8 | 
[V:1] c8- | 
[V:2] A8- | 
[V:3] C8 | 
[V:4] z2e2c3B | 
[V:5] E2c3BA2- | 
[V:6] e6f2- | 
[V:7] C3DE2C2 | 
[V:8] A8 | 
[V:9] E6c2- | 
[V:10] z8 | 
[V:11] A,,8 | 
[V:12] z8 | 
[V:1] c4z4 | 
[V:2] A8 | 
[V:3] C8 | 
[V:4] A2A2a4 | 
[V:5] A2GFE4 | 
[V:6] f2edc4 | 
[V:7] FGABc2A2- | 
[V:8] A8 | 
[V:9] c2BAA4 | 
[V:10] z4E,4 | 
[V:11] F,,2G,,2A,,4 | 
[V:12] z8 | 
[V:1] D4F3G | 
[V:2] z4D4 | 
[V:3] z8 | 
[V:4] a8 | 
[V:5] D2F3GA2 | 
[V:6] d4z4 | 
[V:7] A2d4cB | 
[V:8] F8 | 
[V:9] A8 | 
[V:10] F,4D,2F,2- | 
[V:11] D,8 | 
[V:12] z8 | 
[V:1] A2d4cB | 
[V:2] F3GA2d2- | 
[V:3] z8 | 
[V:4] z8 | 
[V:5] D4d4 | 
[V:6] D2F3GA2 | 
[V:7] A4z4 | 
[V:8] A8- | 
[V:9] d8 | 
[V:10] F,G,A,2D,2F,2- | 
[V:11] z8 | 
[V:12] D,8 | 
[V:1] A2G4^F2 | 
[V:2] d2cBA4 | 
[V:3] z8 | 
[V:4] z8 | 
[V:5] D8- | 
[V:6] D2d4d2 | 
[V:7] z8 | 
[V:8] A8 | 
[V:9] z4d4 | 
[V:10] F,2G,2D,4 | 
[V:11] z8 | 
[V:12] D,8 | 
[V:1] G4z2D2 | 
[V:2] z2G3FG2 | 
[V:3] z8 | 
[V:4] z4d4 | 
[V:5] D8 | 
[V:6] d8 | 
[V:7] z4D4 | 
[V:8] B8 | 
[V:9] d4B2d2- | 
[V:10] G,,8 | 
[V:11] D,4G,4 | 
[V:12] B,,8 | 
[V:1] D3EF2D2 | 
[V:2] A2d4cB | 
[V:3] D8 | 
[V:4] f3ga2a2- | 
[V:5] z8 | 
[V:6] z8 | 
[V:7] D2F3GA2 | 
[V:8] A8 | 
[V:9] d2cBA4 | 
[V:10] z8 | 
[V:11] (3F,2G,2A,2D,2F,2- | 
[V:12] D,8- | 
[V:1] F3GA4 | 
[V:2] A4F4 | 
[V:3] D8 | 
[V:4] ag^fe^f4 | 
[V:5] z8 | 
[V:6] D8 | 
[V:7] D2d3cA2 | 
[V:8] A8 | 
[V:9] z4A4 | 
[V:10] z8 | 
[V:11] F,2G,2D,4 | 
[V:12] D,8 | 
[V:1] z4E4 | 
[V:2] E4z4 | 
[V:3] B,8 | 
[V:4] g4z4 | 
[V:5] B4G4 | 
[V:6] G8 | 
[V:7] G3AB2G2 | 
[V:8] z8 | 
[V:9] E3FG2E2 | 
[V:10] z4G,4 | 
[V:11] z8 | 
[V:12] E,8 | 
[V:1] F3GA2A2- | 
[V:2] A4D3E | 
[V:3] D8- | 
[V:4] a4f3g | 
[V:5] z2d4cB | 
[V:6] D2F3GA2 | 
[V:7] A8- | 
[V:8] z8 | 
[V:9] A2D2A2d2- | 
[V:10] (3F,2G,2A,2D,2F,2- | 
[V:11] z8 | 
[V:12] D,8 | 
[V:1] AGFEF4 | 
[V:2] F2D2A4 | 
[V:3] D8 | 
[V:4] a2d3ef2 | 
[V:5] A4d4 | 
[V:6] D2d3cA2 | 
[V:7] A8 | 
[V:8] z8 | 
[V:9] d2cBA2d2 | 
[V:10] F,2G,2D,4 | 
[V:11] z8 | 
[V:12] D,8 | 
[V:1] G4G3A | 
[V:2] z2c3BG2- | 
[V:3] E8 | 
[V:4] e2c3def | 
[V:5] G2E3FG2- | 
[V:6] c8 | 
[V:7] G8 | 
[V:8] z8 | 
[V:9] z2G2E3C | 
[V:10] z4C,4 | 
[V:11] C,8 | 
[V:12] z8 | 
[V:1] B2G3ABc | 
[V:2] GABcd4 | 
[V:3] D8 | 
[V:4] g8- | 
[V:5] G2FED4 | 
[V:6] B2G4FE | 
[V:7] G4z2D2- | 
[V:8] B8 | 
[V:9] G4z2d2- | 
[V:10] D,6G,2- | 
[V:11] G,,8- | 
[V:12] z8 | 
[V:1] d4B4 | 
[V:2] B2c2d4 | 
[V:3] D8 | 
[V:4] g8 | 
[V:5] G3ABAGF | 
[V:6] D4d4 | 
[V:7] D2E2G4- | 
[V:8] B8 | 
[V:9] dcBAG4 | 
[V:10] G,2F,E,D,4 | 
[V:11] G,,8 | 
[V:12] z8 | 
[V:1] c6BA | 
[V:2] e8 | 
[V:3] z8 | 
[V:4] z2g4fe | 
[V:5] E3FG4 | 
[V:6] z2G2c4 | 
[V:7] G2E2E4 | 
[V:8] G8 | 
[V:9] c3de4 | 
[V:10] C,8 | 
[V:11] z8 | 
[V:12] z8 | 
[V:1] G3ABcB2- | 
[V:2] z8 | 
[V:3] z8 | 
[V:4] e2E3FGA | 
[V:5] z8 | 
[V:6] B6e2- | 
[V:7] E3FGAB2 | 
[V:8] B8- | 
[V:9] e8- | 
[V:10] z8 | 
[V:11] z2G,4E,2 | 
[V:12] E,8 | 
[V:1] BA^G^FG4 | 
[V:2] z8 | 
[V:3] z8 | 
[V:4] B2E2z2e2- | 
[V:5] z4E4- | 
[V:6] e2dcB4 | 
[V:7] E4G4 | 
[V:8] B8 | 
[V:9] e8- | 
[V:10] z8 | 
[V:11] G,3A,E,4 | 
[V:12] E,8 | 
[V:1] A8 | 
[V:2] c6BA | 
[V:3] z8 | 
[V:4] edcBA4 | 
[V:5] E2A4GF | 
[V:6] A8 | 
[V:7] E8 | 
[V:8] c8 | 
[V:9] e8 | 
[V:10] z4E,4 | 
[V:11] A,,8 | 
[V:12] C,8 | 
[V:1] z8 | 
[V:2] G3ABcB2- | 
[V:3] E8 | 
[V:4] E2B4e2- | 
[V:5] E2E3FGA | 
[V:6] z8 | 
[V:7] z8 | 
[V:8] B8 | 
[V:9] E3FGAB2 | 
[V:10] E,2G,4E,2 | 
[V:11] z8 | 
[V:12] E,8- | 
[V:1] z8 | 
[V:2] BA^G^FG4 | 
[V:3] E8 | 
[V:4] e2dcB4 | 
[V:5] B2E2z2e2- | 
[V:6] z8 | 
[V:7] z8 | 
[V:8] B8 | 
[V:9] E4G4 | 
[V:10] G,3A,E,4 | 
[V:11] z8 | 
[V:12] E,8 | 
[V:1] c4c2c2- | 
[V:2] A4z4 | 
[V:3] C8 | 
[V:4] A4c3d | 
[V:5] edcBA4 | 
[V:6] A8 | 
[V:7] C8 | 
[V:8] z8 | 
[V:9] C4c4 | 
[V:10] A,,4z2C,2- | 
[V:11] F,,8 | 
[V:12] F,8 | 
[V:1] c2BAG4 | 
[V:2] c4c2c2- | 
[V:3] E8- | 
[V:4] efg2g3f | 
[V:5] G4C3D | 
[V:6] z2C3DEF | 
[V:7] C3DEFG2 | 
[V:8] z8 | 
[V:9] c2c4BA | 
[V:10] C,D,E,F,G,2C,2 | 
[V:11] C,8- | 
[V:12] E,8 | 
[V:1] c4z4 | 
[V:2] c2BAG4 | 
[V:3] E8 | 
[V:4] ede2g4 | 
[V:5] EFG2G4- | 
[V:6] G2c3BG2 | 
[V:7] C2G2C2c2- | 
[V:8] z8 | 
[V:9] G4E4 | 
[V:10] G,2C,2G,2C,2 | 
[V:11] C,8 | 
[V:12] E,8 | 
[V:1] z2d6 | 
[V:2] z4F4 | 
[V:3] F8 | 
[V:4] a6gf | 
[V:5] G2FEF4 | 
[V:6] z2d2d4 | 
[V:7] c2BAA4 | 
[V:8] z8 | 
[V:9] z2DEFGA2 | 
[V:10] F,8 | 
[V:11] D,8 | 
[V:12] z8 | 
[V:1] cde3ded | 
[V:2] c3Bcde2- | 
[V:3] E8 | 
[V:4] e4g4 | 
[V:5] G4c3B | 
[V:6] G2c4BA | 
[V:7] c8 | 
[V:8] c8 | 
[V:9] E8 | 
[V:10] G,4E,2G,2- | 
[V:11] C,8- | 
[V:12] z8 | 
[V:1] c4G4 | 
[V:2] edcBc4- | 
[V:3] E8 | 
[V:4] e2g3fed | 
[V:5] cde2c4 | 
[V:6] G3FE4 | 
[V:7] z8 | 
[V:8] c8 | 
[V:9] z4G4 | 
[V:10] G,F,E,D,C,4 | 
[V:11] C,8 | 
[V:12] z8 | 
[V:1] F8 | 
[V:2] c2A2A4- | 
[V:3] z8 | 
[V:4] c4z2F2- | 
[V:5] A3Bc4 | 
[V:6] F8 | 
[V:7] c4A2c2- | 
[V:8] A8 | 
[V:9] A2c3BAG | 
[V:10] z4C,4 | 
[V:11] F,,8- | 
[V:12] z8 | 
[V:1] z2F3GAB | 
[V:2] A4z2F2- | 
[V:3] z8 | 
[V:4] FGABc4 | 
[V:5] C4c4 | 
[V:6] c4A2c2- | 
[V:7] cBAGF4 | 
[V:8] c8- | 
[V:9] F4z2C2 | 
[V:10] A,,2C,3B,,A,,G,, | 
[V:11] F,,8 | 
[V:12] F,8 | 
[V:1] c4A2c2 | 
[V:2] FGABc4 | 
[V:3] z8 | 
[V:4] def3ga2 | 
[V:5] A2c3BAG | 
[V:6] cBAGF4- | 
[V:7] z2C2F4- | 
[V:8] c8 | 
[V:9] F3GA4 | 
[V:10] F,,4C,4 | 
[V:11] F,,8 | 
[V:12] F,8 | 
[V:1] _B4AGFG | 
[V:2] F4z4 | 
[V:3] z8 | 
[V:4] f3e/d/c_BA_B | 
[V:5] F8 | 
[V:6] F2GA_B4 | 
[V:7] F2EDF4- | 
[V:8] d8 | 
[V:9] _B6AG | 
[V:10] z4_B,,4 | 
[V:11] _B,,8 | 
[V:12] D,8 | 
[V:1] A4F3G | 
[V:2] F3GABc2 | 
[V:3] F8 | 
[V:4] c6A2- | 
[V:5] z4z2c2- | 
[V:6] A6F2- | 
[V:7] F2EDC4 | 
[V:8] c8 | 
[V:9] F2c3BAG | 
[V:10] C,8- | 
[V:11] F,,8- | 
[V:12] F,8- | 
[V:1] ABc3BA2- | 
[V:2] z2F3GA2 | 
[V:3] F8 | 
[V:4] A2F2FGAF | 
[V:5] cBAGF4 | 
[V:6] F2EDC4 | 
[V:7] A8 | 
[V:8] c8 | 
[V:9] F4c4 | 
[V:10] C,8 | 
[V:11] F,,8 | 
[V:12] F,8 | 
[V:1] A2GFG4 | 
[V:2] D2d6 | 
[V:3] D8 | 
[V:4] GABcd4 | 
[V:5] dcBAG4 | 
[V:6] D8 | 
[V:7] B8 | 
[V:8] z8 | 
[V:9] z2G3FD2 | 
[V:10] G,,8 | 
[V:11] z8 | 
[V:12] G,8 | 
[V:1] A2d4cB | 
[V:2] d2cBA4 | 
[V:3] F8- | 
[V:4] d3efga2- | 
[V:5] A8 | 
[V:6] D6F2- | 
[V:7] A6d2- | 
[V:8] z8 | 
[V:9] DEFGA4 | 
[V:10] z4z2D,2- | 
[V:11] D,8 | 
[V:12] F,8 | 
[V:1] A8 | 
[V:2] d6A2 | 
[V:3] F8 | 
[V:4] ag^fe^f4 | 
[V:5] z8 | 
[V:6] F2G2A4 | 
[V:7] d2cBA4 | 
[V:8] z8 | 
[V:9] z4d4- | 
[V:10] D,2E,2F,4 | 
[V:11] D,4D,4 | 
[V:12] F,8 | 
[V:1] G8 | 
[V:2] B2G4D2 | 
[V:3] G8 | 
[V:4] g4z2d2 | 
[V:5] z2G3AB2 | 
[V:6] B2d4cB | 
[V:7] G8 | 
[V:8] z8 | 
[V:9] d2B4AG | 
[V:10] D,8 | 
[V:11] G,,8 | 
[V:12] z8 | 
[V:1] A2F4ED | 
[V:2] F3EFGA2- | 
[V:3] F8 | 
[V:4] d3ef3e | 
[V:5] A2d4cB | 
[V:6] A6d2- | 
[V:7] z8 | 
[V:8] d8 | 
[V:9] A2d4cB | 
[V:10] z4z2D,2- | 
[V:11] D,8- | 
[V:12] z8 | 
[V:1] D4d4- | 
[V:2] AGFEF4 | 
[V:3] F8 | 
[V:4] fga3gfe | 
[V:5] A4d4- | 
[V:6] d2cBA4 | 
[V:7] z8 | 
[V:8] d8 | 
[V:9] A2G2A4 | 
[V:10] D,2E,2F,4 | 
[V:11] D,8 | 
[V:12] z8 | 
[V:1] d4B4 | 
[V:2] d6B2- | 
[V:3] z8 | 
[V:4] d4z4 | 
[V:5] d2B4G2 | 
[V:6] G4d4- | 
[V:7] z4B4 | 
[V:8] B8 | 
[V:9] B4G4- | 
[V:10] D,4z4 | 
[V:11] G,,8 | 
[V:12] z8 | 
[V:1] d4B4- | 
[V:2] B2G2G4 | 
[V:3] z8 | 
[V:4] d6B2- | 
[V:5] G4D4 | 
[V:6] d2B4G2 | 
[V:7] B6B2 | 
[V:8] d8- | 
[V:9] G2FED4 | 
[V:10] z8 | 
[V:11] G,,8- | 
[V:12] G,8 | 
[V:1] B4d4 | 
[V:2] d4B4 | 
[V:3] z8 | 
[V:4] B2G2g4- | 
[V:5] D8 | 
[V:6] G4D4 | 
[V:7] B4z4 | 
[V:8] d8 | 
[V:9] z4G4- | 
[V:10] z8 | 
[V:11] G,,8 | 
[V:12] G,8 | 
[V:1] e3dcdec | 
[V:2] c2e4dc | 
[V:3] z8 | 
[V:4] g2fee4 | 
[V:5] G6FE | 
[V:6] z4G4- | 
[V:7] c3BG2A2 | 
[V:8] e8 | 
[V:9] G2ABc4 | 
[V:10] z8 | 
[V:11] C,8 | 
[V:12] E,8 | 
[V:1] d6B2- | 
[V:2] B4d4- | 
[V:3] G8 | 
[V:4] z4g4- | 
[V:5] D2G6 | 
[V:6] G2FED4 | 
[V:7] B8 | 
[V:8] d8 | 
[V:9] d8- | 
[V:10] z8 | 
[V:11] G,,8- | 
[V:12] G,8- | 
[V:1] B2G2G4 | 
[V:2] d2B4G2 | 
[V:3] G8- | 
[V:4] g2fed3c | 
[V:5] z8 | 
[V:6] z8 | 
[V:7] z4d4- | 
[V:8] d8 | 
[V:9] d4B4- | 
[V:10] D,6B,,2- | 
[V:11] G,,8- | 
[V:12] G,8 | 
[V:1] z8 | 
[V:2] G4z4 | 
[V:3] G8- | 
[V:4] B8- | 
[V:5] z4d4- | 
[V:6] d6B2- | 
[V:7] d2B4G2 | 
[V:8] z8 | 
[V:9] B4G4 | 
[V:10] B,,2G,,2G,,4 | 
[V:11] G,,8- | 
[V:12] G,8 | 
[V:1] d8- | 
[V:2] B8- | 
[V:3] G8- | 
[V:4] B8- | 
[V:5] d2B4G2 | 
[V:6] B2G2G4 | 
[V:7] G4D4 | 
[V:8] d8 | 
[V:9] G8- | 
[V:10] G,,8- & D,8- | 
[V:11] G,,8- | 
[V:12] G,8 | 
[V:1] d8- | 
[V:2] B8- | 
[V:3] G8- | 
[V:4] B8- | 
[V:5] G4G4 | 
[V:6] D4d4 | 
[V:7] B8- | 
[V:8] d8- | 
[V:9] G8- | 
[V:10] G,,8- & D,8- | 
[V:11] G,,8- | 
[V:12] G,8- | 
[V:1] d8 |]  
[V:2] B8 |]  
[V:3] G8 |]  
[V:4] B8 |]  
[V:5] D8 |]  
[V:6] d8 |]  
[V:7] B8 |]  
[V:8] d8 |]  
[V:9] G8 |]  
[V:10] G,,8 & D,8 |]  
[V:11] G,,8 |]  
[V:12] G,8 |]  



